X: 17
T: Chicken and Dumpling
L:1/8
M:2/4
S:Viola "Mom" Ruth - Pioneer Western Folk Tunes (1948)
Z:AK/Fiddler's Companion
K:G
d>g g/f/g/a/|bb/c'/ b/a/f/g/|aa/b/ a/g/e/f/|g/a/g/e/ d/c/B/c/|
d>g g/f/g/a/|bb/c'/ b/a/f/g/|a/b/a/g/ f/d/e/f/|g>a g2||
D>[GB] [G/B/][G/c/][G/B/]G/| D>[GB] [G/B/][G/c/][G/B/]G/|
E>[Ec] [E/c/][E/d/][E/c/]G/| E>[Ec] [E/c/][E/d/][E/c/]G/|
D>[GB] [G/B/][G/c/][G/B/]G/|A/B/A/G/ F/E/D/C/|D<G A<G|
D>[GB] [G/B/][G/c/][G/B/]G/| D>[GB] [G/B/][G/c/][G/B/]G/|
E>[Ec] [E/c/][E/d/][E/c/]G/| E>[Ec] [E/c/][E/d/][E/c/]G/|
D>[GB] [G/B/][G/c/][G/B/]G/| D>[GB] [G/B/][G/c/][G/B/]G/|
A/B/A/G/ F/D/E/F/|G>A G2||

%%sep 1 1 500
